icons/amazonwebservices/amazonwebservices-original.svg

<svg xmlns="http://www.w3.org/2000/svg" viewBox="0 0 128 128"><path fill="#F7A80D" d="M38.089 77.466l-11.4 4.896 10.559 4.514 12.241-4.514-11.4-4.896zm-17.138 6.12l-.382 22.034 16.679 7.345v-22.876l-16.297-6.503zm34.276 0l-15.073 5.739v21.575l15.073-6.121v-21.193zM73.206 15.035l-11.476 4.896 10.635 4.515 12.241-4.515-11.4-4.896zm-15.914 6.503v22.034l14.231 4.132.459-20.046-14.69-6.12zm31.828 1.224l-13.466 5.738v21.652l13.466-6.121v-21.269zM19.306 46.047l-11.399 4.897 10.558 4.514 12.241-4.514-11.4-4.897zm-17.138 6.121l-.382 22.034 16.679 7.345v-22.876l-16.297-6.503zm34.275 0l-15.071 5.738v21.574l15.071-6.12v-21.192zM56.03 45.231l-11.4 4.897 10.558 4.514 12.241-4.514-11.399-4.897zm-17.137 6.121l-.383 22.035 16.679 7.345v-22.877l-16.296-6.503zm34.275 0l-15.072 5.738v21.576l15.072-6.121v-21.193zM109.076 15.035l-11.399 4.896 10.559 4.515 12.241-4.515-11.401-4.896zm-17.137 6.121l-.382 22.034 16.679 7.344v-22.876l-16.297-6.502zm34.275 0l-15.071 5.738v21.575l15.071-6.12v-21.193z"/></svg>

<svg xmlns="http://www.w3.org/2000/svg" viewBox="0 0 128 128"><path fill="#F7A80D" d="M38.089 77.466l-11.4 4.896 10.559 4.514 12.241-4.514-11.4-4.896zm-17.138 6.12l-.382 22.034 16.679 7.345V90.089l-16.297-6.503zm34.276 0l-15.073 5.739V110.9l15.073-6.121V83.586zm17.979-68.551L61.73 19.931l10.635 4.515 12.241-4.515-11.4-4.896zm-15.914 6.503v22.034l14.231 4.132.459-20.046-14.69-6.12zm31.828 1.224L75.654 28.5v21.652l13.466-6.121V22.762zM19.306 46.047L7.907 50.944l10.558 4.514 12.241-4.514-11.4-4.897zM2.168 52.168l-.382 22.034 16.679 7.345V58.671L2.168 52.168zm34.275 0l-15.071 5.738V79.48l15.071-6.12V52.168zm19.587-6.937l-11.4 4.897 10.558 4.514 12.241-4.514-11.399-4.897zm-17.137 6.121l-.383 22.035 16.679 7.345V57.855l-16.296-6.503zm34.275 0L58.096 57.09v21.576l15.072-6.121V51.352zm35.908-36.317l-11.399 4.896 10.559 4.515 12.241-4.515-11.401-4.896zm-17.137 6.121l-.382 22.034 16.679 7.344V27.658l-16.297-6.502zm34.275 0l-15.071 5.738v21.575l15.071-6.12V21.156z"/></svg>
